brandFactory_export/1.Light/Robot_1Light.svg

<?xml version="1.0" encoding="UTF-8"?>
<svg width="24px" height="24px" viewBox="0 0 24 24" version="1.1" xmlns="http://www.w3.org/2000/svg" xmlns:xlink="http://www.w3.org/1999/xlink">
    <title>1.Light/Robot_1Light</title>
    <g id="Symbols" stroke="none" stroke-width="1" fill="none" fill-rule="evenodd">
        <g id="1.Light/Robot_1Light" fill="#5CB615" fill-rule="nonzero">
            <path d="M4.59327731,9.67731092 L4.59327731,12.0033613 L19.0941176,12.0033613 L19.0941176,2.60168067 L4.59327731,2.60168067 L4.59327731,9.67731092 Z M2.01848739,9.67731092 L3.58487395,9.67731092 L3.58487395,5.86890756 L2.01848739,5.86890756 L2.01848739,9.67731092 L2.01848739,9.67731092 Z M10.8084034,13.8319328 L12.8655462,13.8319328 L12.8655462,13.005042 L10.8084034,13.005042 L10.8084034,13.8319328 Z M21.6554622,22.6352941 L21.6554622,14.8201681 L2.01848739,14.8201681 L2.01848739,22.6352941 L4.93277311,22.6352941 C4.93277311,22.6218487 4.92268908,22.6084034 4.92268908,22.5915966 L4.92268908,17.5831933 C4.92268908,17.0352941 5.37310924,16.594958 5.93109244,16.594958 L17.7394958,16.594958 C18.2941176,16.594958 18.7478992,17.0352941 18.7478992,17.5831933 L18.7478992,22.5915966 C18.7478992,22.6084034 18.7411765,22.6218487 18.7378151,22.6352941 L21.6554622,22.6352941 Z M5.93109244,22.5915966 L17.7394958,22.5915966 L17.7394958,17.5831933 L5.93109244,17.5831933 L5.93109244,22.5915966 Z M20.102521,9.6907563 L21.6554622,9.6907563 L21.6554622,5.88235294 L20.102521,5.88235294 L20.102521,9.6907563 Z M19.0941176,12.9915966 L13.8739496,12.9915966 L13.8739496,13.8352941 L21.6554622,13.8352941 C22.210084,13.8352941 22.6638655,14.2789916 22.6638655,14.8235294 L22.6638655,22.6386555 C22.6638655,23.1831933 22.2134454,23.6268908 21.6554622,23.6268908 L2.01848739,23.6268908 C1.46386555,23.6268908 1.01008403,23.1831933 1.01008403,22.6386555 L1.01008403,14.8235294 C1.01008403,14.2789916 1.4605042,13.8352941 2.01848739,13.8352941 L9.8,13.8352941 L9.8,12.9915966 L4.59327731,12.9915966 C4.03865546,12.9915966 3.58487395,12.5478992 3.58487395,12.0033613 L3.58487395,10.6655462 L2.01848739,10.6655462 C1.46386555,10.6655462 1.01008403,10.2218487 1.01008403,9.67731092 L1.01008403,5.86890756 C1.01008403,5.32436975 1.4605042,4.88067227 2.01848739,4.88067227 L3.58487395,4.88067227 L3.58487395,2.60168067 C3.58487395,2.05378151 4.03529412,1.61344538 4.59327731,1.61344538 L11.3327731,1.61344538 L11.3327731,1.16302521 C11.2117647,1.03865546 11.1378151,0.87394958 11.1378151,0.68907563 C11.1378151,0.309243697 11.4537815,0.00336134454 11.8369748,0.00336134454 C12.2235294,0.00336134454 12.5394958,0.312605042 12.5394958,0.68907563 C12.5394958,0.87394958 12.4655462,1.03865546 12.3411765,1.16302521 L12.3411765,1.61344538 L19.097479,1.61344538 C19.6521008,1.61344538 20.1058824,2.05378151 20.1058824,2.60168067 L20.1058824,4.89411765 L21.6588235,4.89411765 C22.2134454,4.89411765 22.6672269,5.33445378 22.6672269,5.88235294 L22.6672269,9.6907563 C22.6672269,10.2352941 22.2134454,10.6789916 21.6588235,10.6789916 L20.1058824,10.6789916 L20.1058824,12.0033613 C20.102521,12.5478992 19.6487395,12.9915966 19.0941176,12.9915966 Z M8.82521008,7.0487395 C9.2789916,7.0487395 9.6487395,6.68571429 9.6487395,6.24201681 C9.6487395,5.79495798 9.2789916,5.43193277 8.82521008,5.43193277 C8.37142857,5.43193277 8.00168067,5.79495798 8.00168067,6.24201681 C8.00168067,6.68907563 8.37142857,7.0487395 8.82521008,7.0487395 Z M10.6571429,6.24201681 C10.6571429,7.23361345 9.83697479,8.03697479 8.82521008,8.03697479 C7.81344538,8.03697479 6.99327731,7.2302521 6.99327731,6.24201681 C6.99327731,5.25042017 7.81344538,4.44704836 8.82521008,4.44704836 C9.83697479,4.44369748 10.6571429,5.25042017 10.6571429,6.24201681 Z M14.8621849,7.02521008 C15.3159664,7.02521008 15.6857143,6.66218487 15.6857143,6.21848739 C15.6857143,5.77142857 15.3159664,5.40840336 14.8621849,5.40840336 C14.4084034,5.40840336 14.0386555,5.77142857 14.0386555,6.21848739 C14.0386555,6.66218487 14.4084034,7.02521008 14.8621849,7.02521008 Z M14.8621849,4.42016807 C15.8739496,4.42016807 16.6941176,5.22689076 16.6941176,6.21848739 C16.6941176,7.21008403 15.8739496,8.01344538 14.8621849,8.01344538 C13.8504202,8.01344538 13.0302521,7.20672269 13.0302521,6.21848739 C13.0302521,5.2302521 13.8504202,4.42016807 14.8621849,4.42016807 Z M13.9512605,9.09579832 C14.2302521,9.09579832 14.4554622,9.31764706 14.4554622,9.58991597 C14.4554622,9.86218487 14.2302521,10.0840336 13.9512605,10.0840336 L9.73613445,10.0840336 C9.45714286,10.0840336 9.23193277,9.86218487 9.23193277,9.58991597 C9.23193277,9.31764706 9.45714286,9.09579832 9.73613445,9.09579832 L13.9512605,9.09579832 Z" id="Robot_1Light"></path>
        </g>
    </g>
</svg>

<svg width="24" height="24" viewBox="0 0 24 24" xmlns="http://www.w3.org/2000/svg"><path d="M4.593 9.677v2.326h14.501V2.602h-14.5v7.075zm-2.575 0h1.567V5.87H2.018v3.808zm8.79 4.155h2.058v-.827h-2.058v.827zm10.847 8.803V14.82H2.018v7.815h2.915c0-.013-.01-.027-.01-.043v-5.009c0-.548.45-.988 1.008-.988H17.74a.999.999 0 011.009.988v5.009c0 .016-.007.03-.01.043h2.917zm-15.724-.043H17.74v-5.009H5.931v5.009zM20.103 9.69h1.552V5.882h-1.552v3.809zm-1.009 3.3h-5.22v.844h7.781a1 1 0 011.009.989v7.815c0 .544-.45.988-1.009.988H2.018a1 1 0 01-1.008-.988v-7.815c0-.545.45-.989 1.008-.989H9.8v-.843H4.593a1 1 0 01-1.008-.989v-1.337H2.018a1 1 0 01-1.008-.989V5.87c0-.545.45-.988 1.008-.988h1.567V2.6c0-.547.45-.988 1.008-.988h6.74v-.45a.674.674 0 01-.195-.474c0-.38.316-.686.699-.686.387 0 .702.31.702.686 0 .185-.073.35-.198.474v.45h6.756a.999.999 0 011.009.989v2.292h1.553a.999.999 0 011.008.988v3.809a1 1 0 01-1.008.988h-1.553v1.324a1.006 1.006 0 01-1.012.989zM8.825 7.05a.817.817 0 00.824-.807c0-.447-.37-.81-.824-.81a.818.818 0 00-.823.81c0 .447.37.807.823.807zm1.832-.807c0 .992-.82 1.795-1.832 1.795S6.993 7.23 6.993 6.242c0-.992.82-1.795 1.832-1.795 1.012-.003 1.832.803 1.832 1.795zm4.205.783a.817.817 0 00.824-.807c0-.447-.37-.81-.824-.81a.818.818 0 00-.823.81c0 .444.37.807.823.807zm0-2.605c1.012 0 1.832.807 1.832 1.798 0 .992-.82 1.795-1.832 1.795s-1.832-.806-1.832-1.795c0-.988.82-1.798 1.832-1.798zm-.91 4.676a.5.5 0 01.503.494.5.5 0 01-.504.494H9.736a.5.5 0 01-.504-.494.5.5 0 01.504-.494h4.215z" fill="#5CB615" fill-rule="nonzero"/></svg>
